src/quickemu-icons/quickemu-white-pinkbg.svg

<svg width="512" height="512" fill="none" xmlns="http://www.w3.org/2000/svg">
<circle cx="256" cy="256" r="256" fill="#E91F63"/>
<path d="M224.874 86H108a5 5 0 0 0 0 10h108.248c.773-1.146 1.572-2.29 2.398-3.43l3.661-5.054L224.874 86Z" fill="#fff"/>
<path d="M188.353 150.716a691.901 691.901 0 0 0-2.709 7.284H62a5 5 0 0 1 0-10h127.491l-.36.649-.778 2.067Z" fill="#fff" fill-opacity=".7"/>
<path d="M175.008 209H42a5 5 0 0 0 0 10h131.636l.085-.433.03-.149c.62-3.155 1.027-5.26 1.28-6.916-.018-.837-.025-1.671-.023-2.502Z" fill="#fff" fill-opacity=".3"/>
<path d="M179.159 271H37a5 5 0 0 0 0 10h149.772a156.483 156.483 0 0 0-3.007-3.786 52.046 52.046 0 0 1-4.606-6.214Z" fill="#fff"/>
<path d="M217.848 332H52a5 5 0 0 0 0 10h171.195a616.37 616.37 0 0 0-2.986-5.701 5315.97 5315.97 0 0 1-2.361-4.299Z" fill="#fff" fill-opacity=".6"/>
<path d="M247.238 394H92a5 5 0 0 0 0 10h159.287a756.759 756.759 0 0 0-4.049-10ZM301.279 56.863c-1.961 8.752-15.769-1.926-18.387 7.978-15.464-10.89-.949 11.789-2.996 13.222l-.125-.025-1.228-.372c-.762-.454-1.851-1.195-3.397-2.626-13.709 7.105-17.852 26.652-32.207 35.132-11.404 15.738-17.067 34.109-26.508 51.11-6.287 16.705-12.228 33.477-11.336 51.595-1.48 14.313-9.304 32.635 1.576 44.959 15.929 19.328 27.823 42.2 39.93 64.197 18.932 35.651 34.417 73.126 47.374 111.146 2.978-8.259 1.088 17.99 6.451 20.841.548-13.203 1.997-34.073 3.869-50.145 1.803-42.624-11.204-83.992-10.805-126.475.104-1.774.176-3.604.281-5.411l1.013-5.142-.626-.123c1.473-20.741 4.893-42.85 22.681-55.62 18.006-12.184 41.131-11.593 61.24-18.564 4.485-1.583 9.081-2.676 13.648-3.195.039-.005.09.03.126.024 13.294-1.399 26.647 1.356 39.244 6.037.186.07.416.179.602.249 1.146.431 2.388.883 3.516 1.343 9.353 2.723 27.779 10.229 32.531 4.322-10.928-13.795-30.046-16.726-45.283-24.318-2.444-.961-5.474-2.079-8.55-2.986l-15.014-6.608-3.694-1.771-.025.125-54.084-22.003c-.732-.987-1.54-2.01-2.319-2.802l53.293 17.55.049-.252c1.843.81 3.687 1.536 5.586 2.144l-.024.125 37.234 14.762c6.177 3.804 12.923 7.052 19.504 8.808 10.69 3.77 21.472 22.965 24.889 24.472 1.639-17.661-14.103-28.815-27.446-36.701-15.144-11.454-40.232-16.062-38.605-39.151-.398-1.709-.784-3.413-1.34-5.104l-4.798-9.958.276-.076c-6.845-12.281-17.874-22.381-30.632-27.94-12.314-7.183-26.282-14.65-40.025-19.234-7.494 13.044-7.858-13.065-20.733-7.865-10.236-.785-9.391 2.127-15.573-5.675h.847Zm63.832 55.135c3.642.618 7.64 2.097 11.534 4.358 10.332 6.016 15.967 15.539 12.627 21.265-3.339 5.726-14.468 5.454-24.795-.586-10.327-6.04-15.999-15.378-12.651-21.144 2.088-3.591 7.228-4.919 13.285-3.893Z" fill="#fff"/>
<path d="M363 137.5c10.353 6.624 18.752 6.64 23 0 4.248-6.64-.147-14.376-10.5-21-10.353-6.624-19.252-6.64-23.5 0-4.248 6.64.647 14.376 11 21Z" fill="#E91F63"/>
<path fill-rule="evenodd" clip-rule="evenodd" d="M377.506 138.821c3.757-.004 5.83-1.287 6.724-2.683.893-1.396 1.189-3.816-.382-7.229-1.543-3.353-4.662-7.006-9.155-9.88-4.492-2.875-9.116-4.175-12.807-4.171-3.757.004-5.83 1.287-6.723 2.683-.894 1.396-1.189 3.816.381 7.229 1.544 3.353 4.662 7.006 9.155 9.88 4.493 2.875 9.116 4.175 12.807 4.171Zm10.935.011c-4.248 6.64-16.084 6.653-26.437.03-10.353-6.624-15.301-17.376-11.053-24.016 4.248-6.639 16.084-6.653 26.437-.029 10.353 6.623 16.612 19.833 11.053 24.015Z" fill="#fff"/>
</svg>

<svg width="512" height="512" viewBox="0 0 512 512" fill="none" xmlns="http://www.w3.org/2000/svg">
<circle cx="256" cy="256" r="256" fill="#E91F63"/>
<path d="M224.874 86L108 86C105.239 86 103 88.2386 103 91C103 93.7614 105.239 96 108 96L216.248 96C217.021 94.8536 217.82 93.7092 218.646 92.5695L222.307 87.5164L224.874 86Z" fill="white"/>
<path d="M188.353 150.716C187.484 153.025 186.569 155.457 185.644 158L62 158C59.2386 158 57 155.761 57 153C57 150.239 59.2386 148 62 148L189.491 148L189.131 148.649L188.353 150.716Z" fill="white" fill-opacity="0.7"/>
<path d="M175.008 209L42 209C39.2386 209 37 211.239 37 214C37 216.761 39.2386 219 42 219L173.636 219C173.665 218.854 173.693 218.709 173.721 218.567L173.751 218.418C174.371 215.263 174.778 213.158 175.031 211.502C175.013 210.665 175.006 209.831 175.008 209Z" fill="white" fill-opacity="0.3"/>
<path d="M179.159 271L37 271C34.2386 271 32 273.239 32 276C32 278.761 34.2386 281 37 281L186.772 281C185.787 279.72 184.785 278.458 183.765 277.214C182.01 275.178 180.484 273.1 179.159 271Z" fill="white"/>
<path d="M217.848 332L52 332C49.2386 332 47 334.239 47 337C47 339.761 49.2386 342 52 342L223.195 342C222.209 340.094 221.214 338.193 220.209 336.299C219.414 334.853 218.627 333.42 217.848 332Z" fill="white" fill-opacity="0.6"/>
<path d="M247.238 394L92 394C89.2386 394 87 396.239 87 399C87 401.761 89.2386 404 92 404L251.287 404C249.96 400.655 248.611 397.322 247.238 394Z" fill="white"/>
<path d="M301.279 56.8628C299.318 65.6146 285.51 54.9374 282.892 64.8409C267.428 53.9502 281.943 76.6296 279.896 78.0626L279.771 78.0379L278.543 77.6657C277.781 77.2119 276.692 76.4707 275.146 75.0396C261.437 82.145 257.294 101.692 242.939 110.172C231.535 125.91 225.872 144.281 216.431 161.282C210.144 177.987 204.203 194.759 205.095 212.877C203.615 227.19 195.791 245.512 206.671 257.836C222.6 277.164 234.494 300.036 246.601 322.033C265.533 357.684 281.018 395.159 293.975 433.179C296.953 424.92 295.063 451.169 300.426 454.02C300.974 440.817 302.423 419.947 304.295 403.875C306.098 361.251 293.091 319.883 293.49 277.4C293.594 275.626 293.666 273.796 293.771 271.989L294.784 266.847L294.158 266.724C295.631 245.983 299.051 223.874 316.839 211.104C334.845 198.92 357.97 199.511 378.079 192.54C382.564 190.957 387.16 189.864 391.727 189.345C391.766 189.34 391.817 189.375 391.853 189.369C405.147 187.97 418.5 190.725 431.097 195.406C431.283 195.476 431.513 195.585 431.699 195.655C432.845 196.086 434.087 196.538 435.215 196.998C444.568 199.721 462.994 207.227 467.746 201.32C456.818 187.525 437.7 184.594 422.463 177.002C420.019 176.041 416.989 174.923 413.913 174.016L398.899 167.408L395.205 165.637L395.18 165.762L341.096 143.759C340.364 142.772 339.556 141.749 338.777 140.957L392.07 158.507L392.119 158.255C393.962 159.065 395.806 159.791 397.705 160.399L397.681 160.524L434.915 175.286C441.092 179.09 447.838 182.338 454.419 184.094C465.109 187.864 475.891 207.059 479.308 208.566C480.947 190.905 465.205 179.751 451.862 171.865C436.718 160.411 411.63 155.803 413.257 132.714C412.859 131.005 412.473 129.301 411.917 127.61L407.119 117.652L407.395 117.576C400.55 105.295 389.521 95.1947 376.763 89.6354C364.449 82.453 350.481 74.9864 336.738 70.4015C329.244 83.4465 328.88 57.3369 316.005 62.537C305.769 61.7518 306.614 64.6639 300.432 56.8615L301.279 56.8628ZM365.111 111.998C368.753 112.616 372.751 114.095 376.645 116.356C386.977 122.372 392.612 131.895 389.272 137.621C385.933 143.347 374.804 143.075 364.477 137.035C354.15 130.995 348.478 121.657 351.826 115.891C353.914 112.3 359.054 110.972 365.111 111.998Z" fill="white"/>
<path d="M363 137.5C373.353 144.124 381.752 144.14 386 137.5C390.248 130.86 385.853 123.124 375.5 116.5C365.147 109.876 356.248 109.86 352 116.5C347.752 123.14 352.647 130.876 363 137.5Z" fill="#E91F63"/>
<path fill-rule="evenodd" clip-rule="evenodd" d="M377.506 138.821C381.263 138.817 383.336 137.534 384.23 136.138C385.123 134.742 385.419 132.322 383.848 128.909C382.305 125.556 379.186 121.903 374.693 119.029C370.201 116.154 365.577 114.854 361.886 114.858C358.129 114.862 356.056 116.145 355.163 117.541C354.269 118.937 353.974 121.357 355.544 124.77C357.088 128.123 360.206 131.776 364.699 134.65C369.192 137.525 373.815 138.825 377.506 138.821ZM388.441 138.832C384.193 145.472 372.357 145.485 362.004 138.862C351.651 132.238 346.703 121.486 350.951 114.846C355.199 108.207 367.035 108.193 377.388 114.817C387.741 121.44 394 134.65 388.441 138.832Z" fill="white"/>
</svg>
